src/actions/32/align-horizontal-top-out.svg

<svg viewBox="0 0 32 32" xmlns="http://www.w3.org/2000/svg">
 <defs>
  <style type="text/css">.ColorScheme-Text {
        color:#2e3440;
      }</style>
 </defs>
 <path class="ColorScheme-Text" d="m18 4v6h10v-6h-10zm-14 8v2h24v-2h-24zm0 4v12h10v-12h-10zm14 0v10h10v-10h-10zm-13 1h8v10h-8v-10zm14 0h8v8h-8v-8z" fill="currentColor"/>
</svg>

<svg xmlns="http://www.w3.org/2000/svg" viewBox="0 0 32 32">
  <defs
     id="defs3051">
    <style
       type="text/css"
       id="current-color-scheme">
      .ColorScheme-Text {
        color:#2e3440;
      }
      </style>
  </defs>
  <path
     style="fill:currentColor;fill-opacity:1;stroke:none" 
     d="M 18 4 L 18 10 L 28 10 L 28 4 L 18 4 z M 4 12 L 4 14 L 28 14 L 28 12 L 4 12 z M 4 16 L 4 28 L 14 28 L 14 16 L 4 16 z M 18 16 L 18 26 L 28 26 L 28 16 L 18 16 z M 5 17 L 13 17 L 13 27 L 5 27 L 5 17 z M 19 17 L 27 17 L 27 25 L 19 25 L 19 17 z "
     id="path8" 
     class="ColorScheme-Text"
     />
</svg>
